svg/credit_card_refresh_outline.svg

<svg xmlns="http://www.w3.org/2000/svg" viewBox="0 0 24 24"><path d="M20 4H4c-1.11 0-2 .89-2 2v12a2 2 0 0 0 2 2h7.68c-.11-.5-.18-1-.18-1.5 0-.17 0-.33.03-.5H4v-6h16v.32c.74.24 1.41.61 2 1.08V6a2 2 0 0 0-2-2m0 4H4V6h16zm.83 7.67L22 14.5v4h-4l1.77-1.77A2.5 2.5 0 1 0 20 20h1.71A3.99 3.99 0 0 1 18 22.5c-2.21 0-4-1.79-4-4s1.79-4 4-4c1.11 0 2.11.45 2.83 1.17"/></svg>

<?xml version="1.0" encoding="UTF-8"?><!DOCTYPE svg PUBLIC "-//W3C//DTD SVG 1.1//EN" "http://www.w3.org/Graphics/SVG/1.1/DTD/svg11.dtd"><svg xmlns="http://www.w3.org/2000/svg" xmlns:xlink="http://www.w3.org/1999/xlink" version="1.1" id="mdi-credit-card-refresh-outline" width="24" height="24" viewBox="0 0 24 24"><path d="M20 4H4C2.89 4 2 4.89 2 6V18C2 19.11 2.9 20 4 20H11.68C11.57 19.5 11.5 19 11.5 18.5C11.5 18.33 11.5 18.17 11.53 18H4V12H20V12.32C20.74 12.56 21.41 12.93 22 13.4V6C22 4.89 21.1 4 20 4M20 8H4V6H20V8M20.83 15.67L22 14.5V18.5H18L19.77 16.73C19.32 16.28 18.69 16 18 16C16.62 16 15.5 17.12 15.5 18.5S16.62 21 18 21C18.82 21 19.54 20.61 20 20H21.71C21.12 21.47 19.68 22.5 18 22.5C15.79 22.5 14 20.71 14 18.5S15.79 14.5 18 14.5C19.11 14.5 20.11 14.95 20.83 15.67Z" /></svg>
